storage/app/icons/phosphoricons/fill/robot-fill.svg

<svg xmlns="http://www.w3.org/2000/svg" fill="currentColor" viewBox="0 0 256 256"><path d="M200 48h-64V16a8 8 0 0 0-16 0v32H56a32 32 0 0 0-32 32v112a32 32 0 0 0 32 32h144a32 32 0 0 0 32-32V80a32 32 0 0 0-32-32m-28 48a12 12 0 1 1-12 12 12 12 0 0 1 12-12m-76 88H80a16 16 0 0 1 0-32h16Zm-12-64a12 12 0 1 1 12-12 12 12 0 0 1-12 12m60 64h-32v-32h32Zm32 0h-16v-32h16a16 16 0 0 1 0 32"/></svg>

<svg xmlns="http://www.w3.org/2000/svg" viewBox="0 0 256 256" fill="currentColor"><path d="M200,48H136V16a8,8,0,0,0-16,0V48H56A32,32,0,0,0,24,80V192a32,32,0,0,0,32,32H200a32,32,0,0,0,32-32V80A32,32,0,0,0,200,48ZM172,96a12,12,0,1,1-12,12A12,12,0,0,1,172,96ZM96,184H80a16,16,0,0,1,0-32H96ZM84,120a12,12,0,1,1,12-12A12,12,0,0,1,84,120Zm60,64H112V152h32Zm32,0H160V152h16a16,16,0,0,1,0,32Z"/></svg>
